X:1
T:Parry Macdonald's Birthday
N:The compoſer's first work. May, 2006.
R:reel
M:C|
L:1/8
C:T. S. Macdonald
K:D
AG    | FDFA d2 Ac | d2 fd ecAG | FDFA d2 Ad | BAFE D2 :|
AB/c/ | defd g2 fe | a2 fe defd |B/c/d ef g2 fe | a2 Ac d2 dA |
        B/c/d ef g2 fe | a2 fe defd | FDFA d2 Ad | BAFE D2 |]

